packages/icons/svgs/duotone/Source=pc-monitor.svg

<svg width="24" height="24" viewBox="0 0 24 24" fill="none" xmlns="http://www.w3.org/2000/svg">
<g opacity="0.5">
<path fill-rule="evenodd" clip-rule="evenodd" d="M12 17C12.5523 17 13 17.4477 13 18V22C13 22.5523 12.5523 23 12 23C11.4477 23 11 22.5523 11 22V18C11 17.4477 11.4477 17 12 17Z" fill="black" style="fill:black;fill-opacity:1;"/>
<path fill-rule="evenodd" clip-rule="evenodd" d="M5 22C5 21.4477 5.44772 21 6 21H18C18.5523 21 19 21.4477 19 22C19 22.5523 18.5523 23 18 23H6C5.44772 23 5 22.5523 5 22Z" fill="black" style="fill:black;fill-opacity:1;"/>
</g>
<path fill-rule="evenodd" clip-rule="evenodd" d="M0 2C0 1.44772 0.447715 1 1 1H23C23.5523 1 24 1.44772 24 2V18C24 18.5523 23.5523 19 23 19H1C0.447715 19 0 18.5523 0 18V2ZM2 3V17H22V3H2Z" fill="black" style="fill:black;fill-opacity:1;"/>
</svg>

<svg xmlns="http://www.w3.org/2000/svg" width="24" height="24" viewBox="0 0 24 24"><g fill-rule="evenodd" clip-rule="evenodd" opacity=".55"><path d="M12 17a1 1 0 0 1 1 1v4a1 1 0 1 1-2 0v-4a1 1 0 0 1 1-1"/><path d="M5 22a1 1 0 0 1 1-1h12a1 1 0 1 1 0 2H6a1 1 0 0 1-1-1"/></g><path fill-rule="evenodd" d="M0 2a1 1 0 0 1 1-1h22a1 1 0 0 1 1 1v16a1 1 0 0 1-1 1H1a1 1 0 0 1-1-1zm2 1v14h20V3z" clip-rule="evenodd"/></svg>
